X:898
T:Far O'Er Struy 
C:Joe Buchanan's Scottish Tome - Page 048.1
I:048 1
R:Waltz
Z:Carl Allison
L:1/8
M:3/4
K:D
d>B | "D" A2 A2 d>e | "D" f2 A2 f>g | {g2}"F#m" a2 f2 {g2f2}ed | {f2a2}"A7" f2 e2 e>f |
"Em" g2 {g2}(a>g) {f2a2}fe | "Bm" d2 {B2d2}B2 {c2}d>e | "D" {f2a2}f2 A2 {B2d2}BA | "D" [d4D4] :|
e>f | "Em" g2 {g2}a>g {f2g2}"Bm" fd | "D" f2 "A"e2 "D" {fg}f>e | "Bm" d2 {f2g2}fa gf | "Em" {f2a2}f2 e2 e>f |
"G" g2 {g2}a>g {f2a2}fe |"Bm" d2 {B2d2}B2 {c}d>e | "D" {f2a2}f2 A2 {B2d2}"G" BA | "D" [d4D4] :|]

